X: 32049
T: Peggy's Nettles
R: jig
M: 6/8
K: Gmajor
g|:dBA G3|Bde dBG|A3 efd|efd efg|
dBA G3|Bde dBG|A3 eAe|dBA G2g:|
|:dBG BAG|B3 BAG|FGA D3|FGA gfe|
dBG BAG|B3 BAG|A3 eAe|1 dBA G2g:|2 dBA GBd||
|:g3 fed|egd edB|A3 efd|efd efd|
g3 fed|e3 dBG|A3 eAe|1 dBA GBd:|2 dBA G2g||

